dist/svgs/devui-icons/status/running.svg

<?xml version="1.0" encoding="UTF-8"?>
<svg width="16px" height="16px" viewBox="0 0 16 16" version="1.1" xmlns="http://www.w3.org/2000/svg" xmlns:xlink="http://www.w3.org/1999/xlink">
    <title>status/whiteBG/running</title>
    <desc>Created with Sketch.</desc>
    <g id="status/whiteBG/running" stroke="none" stroke-width="1" fill="none" fill-rule="evenodd">
        <path d="M7.99945005,11.6368543 C9.32441212,11.6339397 10.5430599,10.9114923 11.1809043,9.75083706 L11.3033025,9.52811478 L12.7106652,10.3319015 L12.5908056,10.5478368 C11.4297458,12.6395667 9.00030424,13.6817031 6.68352469,13.081879 C4.36670711,12.482045 2.7489717,10.3920216 2.75000047,7.99999886 L2.74999998,7.04032037 L6.89258462,9.11052897 L4.99856567,10.0570433 C5.66962968,11.0342118 6.78221277,11.6368538 7.99945005,11.6368543 Z M8.00054995,4.36314378 C6.67558788,4.36605843 5.45694012,5.08850586 4.81909573,6.24916107 L4.69669749,6.47188335 L3.28933483,5.66809663 L3.40919438,5.45216133 C4.57025417,3.36043146 6.99969576,2.31829504 9.31647531,2.91811915 C11.6332929,3.5179531 13.2510283,5.60797654 13.2499995,7.99999928 L13.25,8.95967776 L9.10741538,6.88946916 L11.0014343,5.94295487 C10.3303703,4.9657863 9.21778723,4.36314435 8.00054995,4.36314378 Z" id="Combined-Shape" fill="#5170FF" fill-rule="nonzero"></path>
        <path d="M7.99945005,11.6368543 C9.32441212,11.6339397 10.5430599,10.9114923 11.1809043,9.75083706 L11.3033025,9.52811478 L12.7106652,10.3319015 L12.5908056,10.5478368 C11.4297458,12.6395667 9.00030424,13.6817031 6.68352469,13.081879 C4.36670711,12.482045 2.7489717,10.3920216 2.75000047,7.99999886 L2.74999998,7.04032037 L6.89258462,9.11052897 L4.99856567,10.0570433 C5.66962968,11.0342118 6.78221277,11.6368538 7.99945005,11.6368543 Z M8.00054995,4.36314378 C6.67558788,4.36605843 5.45694012,5.08850586 4.81909573,6.24916107 L4.69669749,6.47188335 L3.28933483,5.66809663 L3.40919438,5.45216133 C4.57025417,3.36043146 6.99969576,2.31829504 9.31647531,2.91811915 C11.6332929,3.5179531 13.2510283,5.60797654 13.2499995,7.99999928 L13.25,8.95967776 L9.10741538,6.88946916 L11.0014343,5.94295487 C10.3303703,4.9657863 9.21778723,4.36314435 8.00054995,4.36314378 Z" id="形状" fill="#5170FF" fill-rule="nonzero"></path>
    </g>
</svg>

<svg xmlns="http://www.w3.org/2000/svg" viewBox="0 0 16 16"><path d="M8 11.637a3.64 3.64 0 003.18-1.886l.123-.223 1.408.804-.12.216A5.251 5.251 0 012.75 8v-.96l4.143 2.07-1.894.947a3.635 3.635 0 003 1.58zm0-7.274A3.64 3.64 0 004.82 6.25l-.123.223-1.408-.804.12-.216A5.251 5.251 0 0113.25 8v.96L9.107 6.89l1.894-.947a3.635 3.635 0 00-3-1.58z"/><path d="M8 11.637a3.64 3.64 0 003.18-1.886l.123-.223 1.408.804-.12.216A5.251 5.251 0 012.75 8v-.96l4.143 2.07-1.894.947a3.635 3.635 0 003 1.58zm0-7.274A3.64 3.64 0 004.82 6.25l-.123.223-1.408-.804.12-.216A5.251 5.251 0 0113.25 8v.96L9.107 6.89l1.894-.947a3.635 3.635 0 00-3-1.58z"/></svg>
